src/actions/16/view-readermode-active.svg

<svg xmlns="http://www.w3.org/2000/svg" viewBox="0 0 16 16">
  <defs id="defs3051">
    <style type="text/css" id="current-color-scheme">
      .ColorScheme-Text {
        color:#2e3440;
      }
      .ColorScheme-PositiveText {
        color:#a3be8c;
      }
      </style>
  </defs>
  <g
     transform="translate(0,-1036.3622)">
    <path
       style="fill:currentColor;fill-opacity:1;stroke:none" 
       d="M 5 3 C 3 3 1.97917 4.5 1 4.5 C 0.0208 4.5 0 4 0 4 L 0 12 C 0 12 -0.0417 12.5 1 12.5 C 2.04167 12.5 3 11 5 11 C 7 11 8 12 8 12 L 8 10.8125 C 7.4395 10.252 6.16667 10 5 10 C 2.9489806 10 1.6429856 11.5 1 11.5 L 1 5.5 C 2.53147 5.5 3 4 5 4 C 5.83333 4 6.9477275 4.38525 7.28125 4.71875 C 7.647717 4.99995 8.352283 4.99995 8.71875 4.71875 C 8.989183 4.44835 10.16667 4 11 4 C 13 4 13.3125 5.5 15 5.5 L 15 7.7558594 C 15.383617 8.011906 15.712346 8.3364384 16 8.6953125 L 16 4.0625 C 15.9629 4.2031 15.78125 4.5 15 4.5 C 13.95833 4.5 13 3 11 3 C 9 3 8 4 8 4 C 8 4 7 3 5 3 z "
       transform="translate(0,1036.3622)"
     class="ColorScheme-Text"
       id="rect6742" />
    <path
        style="fill:currentColor;fill-opacity:1;stroke:none" 
     class="ColorScheme-PositiveText"
    d="m 12.500034,1044.3622 c 1.939,0 3.5,1.561 3.5,3.5 0,1.939 -1.561,3.5 -3.5,3.5 -1.939,0 -3.4999997,-1.561 -3.4999997,-3.5 0,-1.939 1.5609997,-3.5 3.4999997,-3.5 z"
       id="rect4172" />
  </g>
</svg>

<svg viewBox="0 0 16 16" xmlns="http://www.w3.org/2000/svg">
 <defs>
  <style type="text/css">.ColorScheme-Text {
        color:#2e3440;
      }
      .ColorScheme-PositiveText {
        color:#a3be8c;
      }</style>
 </defs>
 <g transform="translate(0 -1036.4)" fill="currentColor">
  <path class="ColorScheme-Text" transform="translate(0 1036.4)" d="m5 3c-2 0-3.0208 1.5-4 1.5-0.9792 0-1-0.5-1-0.5v8s-0.0417 0.5 1 0.5c1.0417 0 2-1.5 4-1.5s3 1 3 1v-1.1875c-0.5605-0.5605-1.8333-0.8125-3-0.8125-2.051 0-3.357 1.5-4 1.5v-6c1.5315 0 2-1.5 4-1.5 0.83333 0 1.9477 0.38525 2.2812 0.71875 0.36647 0.2812 1.071 0.2812 1.4375 0 0.27043-0.2704 1.4479-0.71875 2.2812-0.71875 2 0 2.3125 1.5 4 1.5v2.2559c0.38362 0.25605 0.71235 0.58058 1 0.93945v-4.6328c-0.0371 0.1406-0.21875 0.4375-1 0.4375-1.0417 0-2-1.5-4-1.5s-3 1-3 1-1-1-3-1z"/>
  <path class="ColorScheme-PositiveText" d="m12.5 1044.4c1.939 0 3.5 1.561 3.5 3.5s-1.561 3.5-3.5 3.5-3.5-1.561-3.5-3.5 1.561-3.5 3.5-3.5z"/>
 </g>
</svg>
